rospo-icon-theme-classic-common/32x32/places/folder-yellow-yandex-disk.svg

<svg height="32" width="32" xmlns="http://www.w3.org/2000/svg"><rect height="16" opacity=".2" rx="1.25" width="25" x="3" y="12"/><path d="m3 21.75c0 .692.5575 1.25 1.25 1.25h22.5c.692 0 1.25-.558 1.25-1.25v-13.5c0-.6925-.558-1.25-1.25-1.25h-12.75v-.75c0-.6925-.557-1.25-1.25-1.25h-8.5c-.6925 0-1.25.5575-1.25 1.25" fill="#b58f1b"/><rect height="16" opacity=".2" rx="1.25" width="25" x="3" y="10"/><rect fill="#e4e4e4" height="10" rx="1.25" width="21" x="5" y="9"/><rect fill="#e2b322" height="16" rx="1.25" width="25" x="3" y="11"/><path d="m4.25 5c-.6925 0-1.25.5575-1.25 1.25v1c0-.6925.5575-1.25 1.25-1.25h8.5c.693 0 1.25.5575 1.25 1.25v.75h12.75c.692 0 1.25.5575 1.25 1.25v-1c0-.6925-.558-1.25-1.25-1.25h-12.75v-.75c0-.6925-.557-1.25-1.25-1.25z" fill="#fff" opacity=".1"/><path d="m14.319 15.035c-2.667 0-2.046 2.236-3.412 2.97-.047.027-.073.051-.115.077.9-.535 2.01-.984 3.189-1.287.998-.257 2.01-.401 2.944-.419h.072c-.901-.256-.999-1.341-2.678-1.341zm2.906 2.016c-.933.018-1.946.162-2.944.419-3.29.847-5.6347 2.688-5.237 4.112.2291.814 1.333 1.551 2.978 1.649-.001-.006-.002-.012-.003-.018-.089-.77.4-1.44.973-1.894s1.309-.784 2.137-.959c.828-.176 1.602-.168 2.25.027.609.184 1.182.584 1.323 1.27 1.648-.924 2.504-2.238 2.256-3.139-.263-.944-1.694-1.506-3.733-1.467zm-.978 3.949c-.331-.004-.683.032-1.033.107-1.447.307-2.548 1.18-2.459 1.949.089.77 1.334 1.144 2.781.837 1.447-.308 2.548-1.181 2.458-1.95-.064-.56-.753-.931-1.747-.943z" fill="#4f3e0c"/></svg>

<svg xmlns="http://www.w3.org/2000/svg" width="32" height="32" version="1">
 <rect style="opacity:0.2" width="25" height="16" x="3" y="12" rx="1.25" ry="1.25"/>
 <path style="fill:#b58f1b" d="M 3,21.75 C 3,22.442 3.5575,23 4.25,23 H 26.75 C 27.442,23 28,22.442 28,21.75 V 8.25 C 28,7.5575 27.442,7 26.75,7 H 14 V 6.25 C 14,5.5575 13.443,5 12.75,5 H 4.25 C 3.5575,5 3,5.5575 3,6.25"/>
 <rect style="opacity:0.2" width="25" height="16" x="3" y="10" rx="1.25" ry="1.25"/>
 <rect style="fill:#dcdcdc" width="21" height="10" x="5" y="9" rx="1.25" ry="1.25"/>
 <rect style="fill:#e2b322" width="25" height="16" x="3" y="11" rx="1.25" ry="1.25"/>
 <path style="opacity:0.1;fill:#ffffff" d="M 4.25 5 C 3.5575 5 3 5.5575 3 6.25 L 3 7.25 C 3 6.5575 3.5575 6 4.25 6 L 12.75 6 C 13.443 6 14 6.5575 14 7.25 L 14 8 L 26.75 8 C 27.442 8 28 8.5575 28 9.25 L 28 8.25 C 28 7.5575 27.442 7 26.75 7 L 14 7 L 14 6.25 C 14 5.5575 13.443 5 12.75 5 L 4.25 5 z"/>
 <path style="fill:#4f3e0c" d="M 14.319,15.035 C 11.652,15.035 12.273,17.271 10.907,18.005 10.86,18.032 10.834,18.056 10.792,18.082 11.692,17.547 12.802,17.098 13.981,16.795 14.979,16.538 15.991,16.394 16.925,16.376 16.949,16.376 16.973,16.376 16.997,16.376 16.096,16.12 15.998,15.035 14.319,15.035 Z M 17.225,17.051 C 16.292,17.069 15.279,17.213 14.281,17.47 10.991,18.317 8.6463,20.158 9.044,21.582 9.2731,22.396 10.377,23.133 12.022,23.231 12.021,23.225 12.02,23.219 12.019,23.213 11.93,22.443 12.419,21.773 12.992,21.319 13.565,20.865 14.301,20.535 15.129,20.36 15.957,20.184 16.731,20.192 17.379,20.387 17.988,20.571 18.561,20.971 18.702,21.657 20.35,20.733 21.206,19.419 20.958,18.518 20.695,17.574 19.264,17.012 17.225,17.051 Z M 16.247,21 C 15.916,20.996 15.564,21.032 15.214,21.107 13.767,21.414 12.666,22.287 12.755,23.056 12.844,23.826 14.089,24.2 15.536,23.893 16.983,23.585 18.084,22.712 17.994,21.943 17.93,21.383 17.241,21.012 16.247,21 Z"/>
</svg>
